X: 813                          
T:Ragtime Annie  (Raggedy Anne)                         
C: trad                          
O:                           
M:2/4:                    
L:1/16                    
Q:1/4=120                 
K:D                       
V:1                       
P:A
FG|"D"A2BB A2B2|A2B2 A2FG|A2BB A2B2|"A7"A2c2 c2cB|!
"A7"A2c2 B2cB|ABcB A2cB|ABcd egfe|"D"d2g2 d2:|!
P:B
|:fg|"D"a2ab afdB|A2AB A2fg|a2ab agfa|"G"gfef g2ef|1!
"A7"g2gb gfef|gfed c2cB|A2g2 f2e2|"D"f4-f2:|2!
"G"g2gb gfef|"D"gfed c2cB|"A7"A2g2f2e2|"D"d4-"D7"d2||!
K:G
P:C
|:dc|"G"B2Bc BAGB|"C"cdcB c2cB|"D7"A2a2 e2f2|"G"g2gb gfed|!
"G"B2Bc BAGB|"C"cdcB c2cB|"D7"A2a2 e2f2|"G"g4 g2:|

